src/assets/images/icons/imageBtn.svg

<?xml version="1.0" encoding="utf-8"?><!-- Uploaded to: SVG Repo, www.svgrepo.com, Generator: SVG Repo Mixer Tools -->
<svg width="800px" height="800px" viewBox="0 0 24 24" fill="none" xmlns="http://www.w3.org/2000/svg">
<path d="M22.0187 16.8203L18.8887 9.50027C18.3187 8.16027 17.4687 7.40027 16.4987 7.35027C15.5387 7.30027 14.6087 7.97027 13.8987 9.25027L11.9987 12.6603C11.5987 13.3803 11.0287 13.8103 10.4087 13.8603C9.77867 13.9203 9.14867 13.5903 8.63867 12.9403L8.41867 12.6603C7.70867 11.7703 6.82867 11.3403 5.92867 11.4303C5.02867 11.5203 4.25867 12.1403 3.74867 13.1503L2.01867 16.6003C1.39867 17.8503 1.45867 19.3003 2.18867 20.4803C2.91867 21.6603 4.18867 22.3703 5.57867 22.3703H18.3387C19.6787 22.3703 20.9287 21.7003 21.6687 20.5803C22.4287 19.4603 22.5487 18.0503 22.0187 16.8203Z" fill="#292D32"/>
<path d="M6.96984 8.38109C8.83657 8.38109 10.3498 6.86782 10.3498 5.00109C10.3498 3.13437 8.83657 1.62109 6.96984 1.62109C5.10312 1.62109 3.58984 3.13437 3.58984 5.00109C3.58984 6.86782 5.10312 8.38109 6.96984 8.38109Z" fill="#292D32"/>
</svg>

<svg width="800" height="800" viewBox="0 0 24 24" fill="none" xmlns="http://www.w3.org/2000/svg"><g fill="#fff"><path d="m22.019 16.82-3.13-7.32c-.57-1.34-1.42-2.1-2.39-2.15-.96-.05-1.89.62-2.6 1.9l-1.9 3.41c-.4.72-.97 1.15-1.59 1.2-.63.06-1.26-.27-1.77-.92l-.22-.28c-.71-.89-1.59-1.32-2.49-1.23-.9.09-1.67.71-2.18 1.72l-1.73 3.45c-.62 1.25-.56 2.7.17 3.88.73 1.18 2 1.89 3.39 1.89h12.76c1.34 0 2.59-.67 3.33-1.79.76-1.12.88-2.53.35-3.76ZM6.97 8.381a3.38 3.38 0 1 0 0-6.76 3.38 3.38 0 0 0 0 6.76Z"/></g></svg>
